flaticon/medical/plastered-foot-1.svg

<svg xmlns="http://www.w3.org/2000/svg" width="32" height="32" viewBox="0 0 24 24">
    <path d="M 23.992188 19.496094 L 24 19.351562 L 23.996094 19.351562 C 24 19.269531 23.996094 19.1875 23.996094 19.105469 L 24 19.101562 L 23.992188 18.972656 C 23.984375 18.804688 23.964844 18.632812 23.9375 18.453125 C 23.933594 18.421875 23.929688 18.390625 23.921875 18.359375 C 23.902344 18.242188 23.878906 18.125 23.851562 18.003906 C 23.839844 17.960938 23.832031 17.921875 23.820312 17.882812 C 23.792969 17.769531 23.753906 17.652344 23.714844 17.539062 C 23.703125 17.5 23.691406 17.464844 23.679688 17.425781 C 23.628906 17.28125 23.566406 17.132812 23.5 16.984375 C 22.722656 15.308594 22.710938 13.050781 22.710938 13.027344 L 22.710938 4.980469 L 21.886719 4.980469 L 21.886719 0.0234375 L 14.039062 0.0234375 L 14.039062 4.980469 L 13.214844 4.980469 L 13.214844 12.492188 C 13.214844 13.132812 12.808594 13.710938 12.207031 13.929688 L 10.824219 14.433594 L 4.695312 16.664062 L 4.128906 16.867188 L 4.128906 17.78125 L 1.75 17.78125 C 1.644531 17.777344 0.707031 17.765625 0.238281 18.390625 C 0.0546875 18.636719 -0.117188 19.074219 0.105469 19.765625 C 0.421875 20.730469 1.929688 22.144531 4.128906 22.960938 L 4.128906 23.648438 L 4.410156 23.742188 C 4.898438 23.910156 5.410156 23.976562 5.941406 23.976562 C 7 23.976562 8.128906 23.707031 9.304688 23.429688 L 9.679688 23.339844 C 9.898438 23.289062 10.109375 23.242188 10.320312 23.199219 L 10.367188 23.1875 C 10.414062 23.179688 10.464844 23.171875 10.511719 23.160156 C 11.671875 22.929688 12.71875 22.804688 13.679688 22.75 C 13.683594 22.75 13.6875 22.746094 13.691406 22.746094 C 14.007812 22.730469 14.316406 22.71875 14.617188 22.710938 C 14.628906 22.710938 14.640625 22.710938 14.648438 22.710938 C 14.945312 22.707031 15.234375 22.707031 15.515625 22.710938 C 15.527344 22.710938 15.539062 22.710938 15.550781 22.710938 C 15.832031 22.71875 16.109375 22.726562 16.375 22.738281 C 16.382812 22.738281 16.390625 22.738281 16.394531 22.738281 C 16.945312 22.765625 17.46875 22.800781 17.976562 22.835938 L 19.316406 22.925781 L 19.308594 22.917969 C 19.476562 22.925781 19.644531 22.933594 19.808594 22.9375 C 19.90625 22.941406 19.996094 22.941406 20.085938 22.941406 C 20.132812 22.941406 20.175781 22.9375 20.222656 22.9375 C 20.277344 22.9375 20.332031 22.9375 20.382812 22.933594 C 20.488281 22.929688 20.59375 22.925781 20.691406 22.917969 C 20.726562 22.914062 20.765625 22.914062 20.800781 22.910156 C 20.910156 22.898438 21.011719 22.886719 21.113281 22.875 C 21.136719 22.871094 21.160156 22.867188 21.183594 22.863281 C 21.289062 22.847656 21.386719 22.828125 21.484375 22.808594 C 21.5 22.804688 21.515625 22.800781 21.53125 22.800781 C 21.628906 22.777344 21.722656 22.753906 21.8125 22.726562 C 21.824219 22.726562 21.832031 22.722656 21.84375 22.71875 C 21.933594 22.691406 22.019531 22.664062 22.101562 22.632812 C 22.109375 22.628906 22.117188 22.628906 22.125 22.625 C 22.207031 22.59375 22.28125 22.5625 22.355469 22.527344 C 22.359375 22.523438 22.363281 22.523438 22.371094 22.519531 C 22.441406 22.488281 22.507812 22.449219 22.570312 22.414062 C 22.574219 22.414062 22.582031 22.410156 22.585938 22.40625 C 22.648438 22.371094 22.707031 22.335938 22.757812 22.296875 C 22.761719 22.292969 22.765625 22.292969 22.769531 22.289062 C 22.824219 22.253906 22.871094 22.214844 22.917969 22.179688 C 22.921875 22.175781 22.925781 22.171875 22.929688 22.167969 C 22.972656 22.132812 23.011719 22.097656 23.050781 22.0625 C 23.054688 22.058594 23.058594 22.050781 23.0625 22.046875 C 23.097656 22.015625 23.132812 21.980469 23.160156 21.945312 C 23.167969 21.941406 23.171875 21.9375 23.175781 21.933594 C 23.203125 21.898438 23.230469 21.867188 23.253906 21.835938 C 23.257812 21.832031 23.261719 21.828125 23.265625 21.820312 C 23.289062 21.792969 23.308594 21.765625 23.328125 21.738281 C 23.332031 21.730469 23.335938 21.726562 23.339844 21.71875 C 23.359375 21.695312 23.375 21.671875 23.386719 21.648438 C 23.390625 21.640625 23.394531 21.636719 23.398438 21.628906 C 23.417969 21.601562 23.429688 21.578125 23.445312 21.554688 L 23.46875 21.519531 C 23.484375 21.492188 23.503906 21.457031 23.527344 21.414062 C 23.53125 21.410156 23.53125 21.40625 23.53125 21.402344 C 23.695312 21.09375 23.949219 20.398438 23.992188 19.496094 Z M 22.949219 17.839844 C 22.957031 17.871094 22.964844 17.898438 22.976562 17.929688 C 23.027344 18.101562 23.074219 18.277344 23.105469 18.457031 L 19.785156 15.136719 L 21.886719 13.039062 C 21.886719 13.042969 21.886719 13.054688 21.886719 13.058594 C 21.886719 13.066406 21.886719 13.070312 21.886719 13.078125 C 21.886719 13.09375 21.886719 13.113281 21.886719 13.140625 C 21.886719 13.152344 21.886719 13.164062 21.886719 13.179688 C 21.886719 13.203125 21.890625 13.230469 21.890625 13.261719 C 21.890625 13.28125 21.890625 13.300781 21.894531 13.324219 C 21.894531 13.355469 21.894531 13.390625 21.898438 13.425781 C 21.898438 13.453125 21.898438 13.476562 21.902344 13.503906 C 21.902344 13.542969 21.90625 13.582031 21.910156 13.625 C 21.910156 13.65625 21.914062 13.6875 21.914062 13.722656 C 21.917969 13.769531 21.921875 13.816406 21.925781 13.859375 C 21.929688 13.898438 21.933594 13.933594 21.9375 13.972656 C 21.941406 14.023438 21.945312 14.074219 21.953125 14.125 C 21.957031 14.167969 21.960938 14.207031 21.964844 14.25 C 21.96875 14.304688 21.976562 14.359375 21.984375 14.414062 C 21.988281 14.460938 21.996094 14.503906 22 14.550781 C 22.007812 14.609375 22.015625 14.667969 22.027344 14.726562 C 22.035156 14.777344 22.039062 14.820312 22.046875 14.871094 C 22.058594 14.933594 22.066406 14.996094 22.078125 15.058594 C 22.089844 15.109375 22.097656 15.15625 22.105469 15.207031 C 22.117188 15.273438 22.132812 15.339844 22.144531 15.402344 C 22.15625 15.453125 22.164062 15.503906 22.175781 15.554688 C 22.191406 15.621094 22.207031 15.691406 22.222656 15.761719 C 22.234375 15.8125 22.246094 15.859375 22.257812 15.910156 C 22.277344 15.980469 22.296875 16.050781 22.316406 16.121094 C 22.328125 16.171875 22.34375 16.222656 22.355469 16.269531 C 22.378906 16.34375 22.402344 16.421875 22.425781 16.496094 C 22.441406 16.539062 22.453125 16.585938 22.46875 16.628906 C 22.5 16.710938 22.527344 16.792969 22.558594 16.871094 C 22.574219 16.910156 22.585938 16.945312 22.601562 16.984375 C 22.648438 17.101562 22.695312 17.21875 22.75 17.332031 C 22.828125 17.5 22.890625 17.667969 22.949219 17.839844 Z M 19.203125 14.554688 L 14.582031 9.933594 L 21.886719 9.933594 L 21.886719 11.871094 Z M 14.867188 3.117188 C 15.09375 3.117188 15.277344 2.933594 15.277344 2.703125 C 15.277344 2.476562 15.09375 2.292969 14.867188 2.292969 L 14.867188 0.851562 L 21.058594 0.851562 L 21.058594 4.980469 L 14.867188 4.980469 Z M 21.886719 5.804688 L 21.886719 9.109375 L 14.039062 9.109375 L 14.039062 5.804688 Z M 14.039062 12.492188 L 14.039062 10.558594 L 23.152344 19.671875 C 23.117188 20.046875 23.039062 20.359375 22.964844 20.597656 C 22.890625 20.832031 22.816406 20.988281 22.792969 21.035156 C 22.789062 21.042969 22.785156 21.054688 22.78125 21.058594 C 22.769531 21.078125 22.753906 21.101562 22.734375 21.132812 C 22.476562 21.566406 21.996094 21.859375 21.304688 22.007812 C 21.289062 22.011719 21.273438 22.011719 21.257812 22.015625 C 21.132812 22.039062 21.003906 22.0625 20.867188 22.078125 C 20.554688 22.113281 20.210938 22.125 19.832031 22.113281 C 19.546875 22.105469 19.261719 22.089844 18.96875 22.074219 C 18.949219 22.074219 18.933594 22.070312 18.917969 22.070312 C 18.785156 22.0625 18.648438 22.054688 18.515625 22.042969 L 11.527344 15.058594 L 12.488281 14.707031 C 13.417969 14.371094 14.039062 13.480469 14.039062 12.492188 Z M 16.488281 21.917969 C 16.480469 21.917969 16.46875 21.917969 16.460938 21.917969 C 15.269531 21.859375 13.964844 21.855469 12.457031 22.023438 C 12.449219 22.023438 12.445312 22.023438 12.4375 22.023438 C 11.851562 22.089844 11.226562 22.183594 10.570312 22.308594 C 10.554688 22.3125 10.542969 22.3125 10.527344 22.316406 L 5.472656 17.257812 L 8.558594 16.136719 L 10.609375 15.390625 L 17.175781 21.957031 C 16.949219 21.941406 16.71875 21.929688 16.488281 21.917969 Z M 0.890625 19.507812 C 0.800781 19.226562 0.800781 19.015625 0.898438 18.886719 C 1.070312 18.65625 1.53125 18.605469 1.71875 18.605469 C 1.726562 18.605469 1.730469 18.605469 1.738281 18.605469 L 4.128906 18.605469 L 4.128906 22.078125 C 2.246094 21.308594 1.09375 20.125 0.890625 19.507812 Z M 9.113281 22.625 C 7.59375 22.984375 6.148438 23.328125 4.953125 23.042969 L 4.953125 17.910156 L 9.5625 22.519531 C 9.539062 22.527344 9.515625 22.53125 9.488281 22.535156 Z M 9.113281 22.625"/>
    <path d="M16.105469 1.464844C16.105469 1.695312 15.917969 1.878906 15.691406 1.878906 15.464844 1.878906 15.277344 1.695312 15.277344 1.464844 15.277344 1.238281 15.464844 1.050781 15.691406 1.050781 15.917969 1.050781 16.105469 1.238281 16.105469 1.464844zM17.34375 2.292969C17.34375 2.519531 17.160156 2.703125 16.929688 2.703125 16.703125 2.703125 16.515625 2.519531 16.515625 2.292969 16.515625 2.0625 16.703125 1.878906 16.929688 1.878906 17.160156 1.878906 17.34375 2.0625 17.34375 2.292969zM16.515625 3.53125C16.515625 3.757812 16.332031 3.941406 16.105469 3.941406 15.875 3.941406 15.691406 3.757812 15.691406 3.53125 15.691406 3.300781 15.875 3.117188 16.105469 3.117188 16.332031 3.117188 16.515625 3.300781 16.515625 3.53125zM16.515625 3.53125"/>
</svg>

<svg xmlns="http://www.w3.org/2000/svg" width="32" height="32" viewBox="0 0 24 24">
    <path d="M23.992 19.496l.008-.144h-.004c.004-.082 0-.165 0-.247l.004-.003-.008-.13a5 5 0 0 0-.055-.519 6.338 6.338 0 0 0-.086-.45c-.011-.042-.019-.081-.03-.12a3.849 3.849 0 0 0-.106-.344c-.012-.039-.024-.074-.035-.113a5.826 5.826 0 0 0-.18-.442c-.777-1.675-.79-3.933-.79-3.957V4.98h-.823V.023h-7.848V4.98h-.824v7.512c0 .64-.406 1.219-1.008 1.438l-1.383.504-6.129 2.23-.566.203v.914H1.75c-.105-.004-1.043-.015-1.512.61-.183.246-.355.683-.133 1.375.317.964 1.825 2.379 4.024 3.195v.687l.281.094c.488.168 1 .235 1.531.235 1.059 0 2.188-.27 3.364-.547l.375-.09c.218-.05.43-.098.64-.14l.047-.012c.047-.008.098-.016.145-.028 1.16-.23 2.207-.355 3.168-.41.004 0 .008-.004.011-.004.317-.016.625-.027.926-.035h.031c.297-.004.586-.004.868 0h.035c.281.008.558.016.824.027h.02c.55.028 1.074.063 1.582.098l1.34.09-.008-.008c.168.008.336.016.5.02.097.003.187.003.277.003.047 0 .09-.003.137-.003.054 0 .109 0 .16-.004.105-.004.21-.008.308-.016.036-.004.075-.004.11-.008l.312-.035.07-.012c.106-.015.204-.035.301-.054.016-.004.032-.008.047-.008.098-.024.192-.047.282-.074.011 0 .019-.004.03-.008.09-.028.177-.055.259-.086.007-.004.015-.004.023-.008.082-.031.156-.063.23-.098.004-.004.008-.004.016-.007.07-.032.137-.07.2-.106a1.444 1.444 0 0 0 .188-.117c.003-.004.007-.004.01-.008.055-.035.102-.074.149-.11l.012-.011c.043-.035.082-.07.12-.105.005-.004.009-.012.012-.016a.795.795 0 0 0 .098-.102c.008-.004.012-.008.016-.011.027-.036.054-.067.078-.098.004-.004.008-.008.012-.016.023-.027.043-.054.062-.082.004-.008.008-.011.012-.02a.367.367 0 0 0 .047-.07c.004-.007.008-.011.011-.02.02-.026.032-.05.047-.073l.024-.035.058-.106c.004-.004.004-.008.004-.012.164-.308.418-1.004.461-1.906zM22.95 17.84a4.72 4.72 0 0 1 .156.617l-3.32-3.32 2.102-2.098V13.18c0 .023.004.05.004.082 0 .02 0 .039.004.062 0 .031 0 .067.003.102 0 .027 0 .05.004.078 0 .039.004.078.008.121 0 .031.004.063.004.098l.012.136.012.114c.003.05.007.101.015.152l.012.125c.004.055.012.11.02.164.003.047.011.09.015.137.008.058.016.117.027.176.008.05.012.093.02.144.012.063.02.125.031.188.012.05.02.097.027.148.012.066.028.133.04.195l.03.153.048.207.035.148.058.211c.012.05.028.102.04.149.023.074.046.152.07.226.015.043.027.09.043.133.031.082.058.164.09.242.015.04.027.074.043.113.046.118.093.235.148.348.078.168.14.336.2.508zm-3.746-3.285l-4.621-4.621h7.305v1.937zM14.867 3.117c.227 0 .41-.183.41-.414a.41.41 0 0 0-.41-.41V.852h6.192V4.98h-6.192zm7.02 2.688v3.304h-7.848V5.805zm-7.848 6.687V10.56l9.113 9.113a4.513 4.513 0 0 1-.187.926c-.074.234-.149.39-.172.437-.004.008-.008.02-.012.024-.011.02-.027.043-.047.074-.257.433-.738.726-1.43.875-.015.004-.03.004-.046.008a5.453 5.453 0 0 1-.39.062c-.313.035-.657.047-1.036.035-.285-.008-.57-.023-.863-.039-.02 0-.035-.004-.051-.004-.133-.008-.27-.015-.402-.027l-6.989-6.984.961-.352a2.359 2.359 0 0 0 1.551-2.215zm2.45 9.426h-.028a24.464 24.464 0 0 0-4.004.105h-.02c-.585.067-1.21.16-1.867.286-.015.003-.027.003-.043.007l-5.054-5.058 3.086-1.121 2.05-.746 6.567 6.566c-.227-.016-.457-.027-.688-.039zM.89 19.508c-.09-.281-.09-.492.007-.621.172-.23.633-.282.82-.282h2.41v3.473c-1.882-.77-3.034-1.953-3.237-2.57zm8.222 3.117c-1.52.36-2.965.703-4.16.418V17.91l4.61 4.61a.415.415 0 0 1-.075.015zm0 0"/>
    <path d="M16.105 1.465a.414.414 0 1 1-.828 0 .414.414 0 0 1 .828 0zm0 0M17.344 2.293c0 .227-.184.41-.414.41a.413.413 0 0 1-.414-.41.414.414 0 0 1 .828 0zm0 0M16.516 3.531a.41.41 0 0 1-.41.41.412.412 0 1 1 .41-.41zm0 0"/>
</svg>
